X: 1
T: CONNAUGHT LASS'ES -- REEL
B: Ryan's Mammoth Collection of Fiddle Tunes
R: reel
M: 2/4
L: 1/16
Z: Contributed 20010523130648 by John Chambers jc:trillian.mit.edu
K: D
"^Segno"|]\
   D2((3FED) FAAF | G2BG FABc | dcdB Adef | gfed cBAF |
|  D2((3FED) FAAF | G2BG FABc | ecdf edcB |1 AGFE DA,B,C :|2 AGFE D2 |]
fg |\
| a2{b}ag afdf | gfed cBAF | G2BG F2ef | gfed c2eA |
|1 a2{b}ag afdf gfed cBAF | G2BG F2AF | A,2C2 D4 |
:|2 dfa^g afdf | gfed cBAf | gfge fcdB | AGFE DA,B,C "^Segno"|]
